X: 2138
T: CHARLIE STUART
C:
Q: "Reel."
R: Reel.
%R: reel
B: James Kerr "Merry Melodies" v.2 p.17 #138
Z: 2016 John Chambers <jc:trillian.mit.edu>
M: C
L: 1/8
K: D
uB |\
AFED G3uB | AFED E3B |\
AFED GABd | AGFE D3 :|\
uA |\
(vde)fd (ugf)ec | (de)fd (ec)BA |
(de)fd (gf)eg | (f/g/a) (ef) d3f |\
defd gfec | defd ecBA |\
defd gfeg | faef d3 |]
